X:1
T:Draw Me Closer, Lord, to Thee
T:Draw Me Closer, Lord, to Thee
T:Anthony Johnson Showalter
T:Elisha Albright Hoffman, 1898
T:Public Domain Courtesy of the Cyber Hymnal™
C:Anthony Johnson Showalter
Z:Public Domain
Z:Courtesy of the Cyber Hymnal™
%%score ( 1 2 ) ( 3 4 )
L:1/8
Q:1/4=110
M:6/8
K:Eb
V:1 treble 
V:2 treble 
V:3 bass 
V:4 bass 
V:1
 [GB]2 [GB] [^Fc]2 [Fc] | [GB]2 [^F=A] [GB]3 | E2 E [DF]2 [EG] | [B,F]2 [CF] [DB]3 | %4
w: 1.~Draw me clos- er,|Lord, to Thee,|Fold me in Thy|love’s em- brace,|
w: 2.~Draw me clos- er,|Lord, to Thee;|In Thy arms Thy|child en- fold,|
w: 3.~Draw me clos- er,|Lord, to Thee,|In com- mun- ion|rich and sweet,|
w: 4.~Draw me clos- er,|Lord, to Thee,|For my long- ing|soul as- pires|
 [GB]2 [GB] [^Fc]2 [Fc] [GB]2 [F=A] [FB]3 | [Ge]2 [Ge] [Fd]2 [Gc] | [FB]2 [E=A] [DB]3 || %7
w: And un- to my soul re- veal|All the rich- es|of Thy grace.|
w: And this earth- ly heart of mine|In- to Thine own|im- age mold.|
w: Till my soul shall be re- fined,|And in Thee be|made com- plete.|
w: To dis- cov- er in Thy- self|All it yearns for|and de- sires.|
"^Refrain" [EB]2 [EB] [Ec]2 [Ec] | [_DG]2 [DG] [CA]2 [CA] | [DF]2 [DF] [EB]2 [FA] | ([EG]3 [EB]3) | %11
w: ||||
w: ||||
w: ||||
w: ||||
 [Ge]2 [Ge] [Fd]2 [Fd] | [Ec]2 [Ae] [Ge]2 [EB] | [EB]2 [FA] [EG]2 [DF] | E6 |] %15
w: ||||
w: ||||
w: ||||
w: ||||
V:2
 x6 | x6 | E2 E x3 | x6 | x12 | x6 | x6 || x6 | x6 | x6 | x6 | x6 | x6 | x6 | E6 |] %15
V:3
 [E,B,]2 [E,B,] [E,=A,]2 [E,A,] | [E,B,]2 [E,C] [E,B,]3 | [G,B,]2 [G,B,] [F,B,]2 [E,B,] | %3
w: ~ ~ ~ ~|~ ~ ~|~ ~ ~ ~|
 [D,B,]2 [C,=A,] [B,,B,]3 | [E,B,]2 [E,B,] [E,=A,]2 [E,A,] [E,B,]2 [E,C] [D,B,]3 | %5
w: ~ ~ ~|~ ~ ~ ~ ~ ~ ~|
 [C,G,]2 [C,G,] [D,B,]2 [E,E] | [F,D]2 [F,C] [B,,B,]3 || [E,G,]2 [E,G,] [C,G,]2 [C,G,] | %8
w: ~ ~ ~ ~|~ ~ ~|Draw me clos- er,|
 [=E,B,]2 [E,B,] [F,A,]2 [F,A,] | [B,,B,]2 [B,,B,] [C,F,]2 [D,B,] | (B,3 G,3) | %11
w: clos- er, clos- er,|Clos- er, Lord, to|Thee; *|
 [C,C]2 [C,C] [G,=B,]2 [G,B,] | [A,C]2 [A,C] [E,B,]2 [E,G,] | [G,B,]2 [A,C] B,2 [B,,A,] | %14
w: Ev- er pur- er,|pur- er, pur- er|Then my soul shall|
 [E,G,]6 |] %15
w: be.|
V:4
 x6 | x6 | x6 | x6 | x12 | x6 | x6 || x6 | x6 | x6 | E,6 | x6 | x6 | x3 B,2 x | x6 |] %15

